icons/svg/seamark/notice_prohibition_noovertaking.svg

<?xml version="1.0" encoding="UTF-8" standalone="no"?>
<svg
   xmlns:dc="http://purl.org/dc/elements/1.1/"
   xmlns:cc="http://creativecommons.org/ns#"
   xmlns:rdf="http://www.w3.org/1999/02/22-rdf-syntax-ns#"
   xmlns:svg="http://www.w3.org/2000/svg"
   xmlns="http://www.w3.org/2000/svg"
   xmlns:sodipodi="http://sodipodi.sourceforge.net/DTD/sodipodi-0.dtd"
   xmlns:inkscape="http://www.inkscape.org/namespaces/inkscape"
   width="320"
   height="320"
   id="svg2"
   version="1.1"
   inkscape:version="0.48.4 r9939"
   sodipodi:docname="notice_prohibition_noovertaking.svg">
  <defs
     id="defs13">
    <inkscape:path-effect
       effect="gears"
       id="path-effect3774"
       is_visible="true"
       teeth="6"
       phi="-1.2" />
    <inkscape:path-effect
       effect="bend_path"
       id="path-effect3772"
       is_visible="false"
       bendpath="m 95.790098,316.51174 c 144.429032,-206.42506 223.313032,-11.7428 339.548092,0"
       prop_scale="1.19"
       scale_y_rel="false"
       vertical="false"
       bendpath-nodetypes="cc" />
    <inkscape:path-effect
       effect="spiro"
       id="path-effect3775"
       is_visible="true" />
    <inkscape:path-effect
       effect="spiro"
       id="path-effect3775-9"
       is_visible="true" />
    <inkscape:path-effect
       effect="spiro"
       id="path-effect3775-7"
       is_visible="true" />
  </defs>
  <sodipodi:namedview
     pagecolor="#ffffff"
     bordercolor="#666666"
     borderopacity="1"
     objecttolerance="10"
     gridtolerance="10"
     guidetolerance="10"
     inkscape:pageopacity="0"
     inkscape:pageshadow="2"
     inkscape:window-width="1920"
     inkscape:window-height="1004"
     id="namedview11"
     showgrid="true"
     inkscape:zoom="1.6275861"
     inkscape:cx="301.38765"
     inkscape:cy="197.57205"
     inkscape:window-x="1680"
     inkscape:window-y="0"
     inkscape:window-maximized="1"
     inkscape:current-layer="svg2"
     inkscape:snap-bbox="true"
     inkscape:object-nodes="true"
     inkscape:snap-midpoints="true"
     inkscape:snap-grids="false"
     inkscape:snap-bbox-edge-midpoints="true"
     showguides="true"
     inkscape:guide-bbox="true">
    <inkscape:grid
       type="xygrid"
       id="grid2990"
       empspacing="5"
       visible="true"
       enabled="true"
       snapvisiblegridlinesonly="true"
       spacingx="10px"
       spacingy="10px"
       dotted="false" />
    <sodipodi:guide
       orientation="1,0"
       position="55.202458,260.58927"
       id="guide3872" />
    <sodipodi:guide
       orientation="1,0"
       position="265.17816,340"
       id="guide3874" />
    <sodipodi:guide
       orientation="0,1"
       position="317.80107,264.96094"
       id="guide3876" />
    <sodipodi:guide
       orientation="0,1"
       position="325.098,54.759006"
       id="guide3878" />
  </sodipodi:namedview>
  <metadata
     id="metadata2975">image/svg+xmlen<rdf:RDF>
  <cc:Work
     rdf:about="">
    <dc:format>image/svg+xml</dc:format>
    <dc:type
       rdf:resource="http://purl.org/dc/dcmitype/StillImage" />
    <dc:title />
  </cc:Work>
</rdf:RDF>
</metadata>
  <path
     style="color:#000000;fill:#000000;fill-opacity:1;stroke:none;stroke-width:15.17103481;marker:none;visibility:visible;display:inline;overflow:visible;enable-background:accumulate"
     d="m 86.737484,160.00139 27.029796,-32.35835 27.38899,32.35568 -16.66822,0.001 0,75.799 -20.66718,0 -0.006,-75.79423 -17.077386,-0.003"
     id="path3772"
     inkscape:path-effect="#path-effect3775"
     inkscape:original-d="m 86.737484,160.00139 27.029796,-32.35835 27.38899,32.35568 -16.66822,0.001 0,75.799 -20.66718,0 -0.006,-75.79423 z"
     inkscape:connector-curvature="0"
     sodipodi:nodetypes="cccccccc" />
  <path
     style="color:#000000;fill:#000000;fill-opacity:1;stroke:none;stroke-width:15.17103481;marker:none;visibility:visible;display:inline;overflow:visible;enable-background:accumulate"
     d="m 178.64445,114.15219 27.02978,-32.35835 27.38899,32.35568 -16.66822,0.001 0,75.799 -20.66718,0 -0.006,-75.79423 -17.07737,-0.003"
     id="path3772-3"
     inkscape:path-effect="#path-effect3775-7"
     inkscape:original-d="m 178.64445,114.15219 27.02978,-32.35835 27.38899,32.35568 -16.66822,0.001 0,75.799 -20.66718,0 -0.006,-75.79423 z"
     inkscape:connector-curvature="0"
     sodipodi:nodetypes="cccccccc" />
</svg>

<svg width="320" height="320" viewBox="0 0 320 320" fill="none" xmlns="http://www.w3.org/2000/svg">
<path d="M86.7375 160.001L113.767 127.643L141.156 159.998L124.488 159.999V235.798H103.821L103.815 160.004L86.7375 160.001" fill="black"/>
<path d="M178.644 114.152L205.674 81.7939L233.063 114.15L216.395 114.151V189.95H195.728L195.722 114.155L178.644 114.152" fill="black"/>
</svg>
